X:1
T:Ballad of Penny Evans
M:4/4
L:1/4
K:A
 A/2A/2| A3/2 G/2 F E| A D C D| E3/2 C/2 A, =G,| A,3 A/2B/2| c/2 c3/2 d c|\
 B A G A| A E C/2 D3/2| E3 A/2B/2| c3/2 c/2 d c| B A G A| A3/2 E/2 C E|\
 =G3 A/2B/2| A3/2 G/2 F E| C/2 A,3/2- A, C/2C/2| C3/2 A,/2 A, =G,|\
 A,3|
